public/img/svgs/icons/bullet-point-icon.svg

<svg width="12" height="12" viewBox="0 0 12 12" fill="none" xmlns="http://www.w3.org/2000/svg">
<path d="M3.52853 5.83426C4.41611 6.32077 5.19798 6.94506 5.83682 7.67735C5.85612 7.69996 5.88105 7.71829 5.90965 7.73091C5.93826 7.74353 5.96976 7.75009 6.0017 7.75009C6.03364 7.75009 6.06515 7.74353 6.09375 7.73091C6.12236 7.71829 6.14728 7.69996 6.16658 7.67735C6.80433 6.9449 7.58473 6.31992 8.47075 5.83206C8.53378 5.79756 8.58519 5.74862 8.61957 5.69038C8.65395 5.63214 8.67003 5.56675 8.66614 5.50108C8.56337 3.71649 7.71607 2.02984 6.28942 0.769964C6.21057 0.703684 6.10614 0.666748 5.99758 0.666748C5.88902 0.666748 5.78459 0.703684 5.70575 0.769964C4.28246 2.03237 3.4373 3.71904 3.33397 5.50328C3.32999 5.56888 3.34595 5.63422 3.38018 5.69245C3.41441 5.75069 3.46565 5.79967 3.52853 5.83426Z" fill="#39B38E"/>
<path d="M4.19264 11.9838C4.24148 12.0005 4.29318 12.0045 4.34366 11.9954C4.39414 11.9863 4.44203 11.9644 4.48355 11.9314C4.52507 11.8984 4.5591 11.8552 4.58296 11.8052C4.60681 11.7552 4.61984 11.6997 4.62102 11.6432C4.66803 10.597 4.89862 9.57095 5.29996 8.62209C5.32544 8.56426 5.33666 8.50001 5.33248 8.43585C5.3283 8.37169 5.30887 8.30989 5.27616 8.25669C4.73271 7.35756 3.9971 6.62043 3.13446 6.11055C2.27182 5.60067 1.30876 5.33377 0.330545 5.3335C0.242879 5.3335 0.158804 5.37199 0.0968145 5.44052C0.0348253 5.50904 0 5.60199 0 5.6989C0.00145792 7.10373 0.409061 8.47127 1.16331 9.60191C1.91757 10.7326 2.97898 11.5671 4.19264 11.9838Z" fill="#39B38E"/>
<path d="M7.80736 11.9838C7.75852 12.0005 7.70682 12.0045 7.65634 11.9954C7.60586 11.9863 7.55797 11.9644 7.51645 11.9314C7.47493 11.8984 7.4409 11.8552 7.41704 11.8052C7.39319 11.7552 7.38016 11.6997 7.37898 11.6432C7.33197 10.597 7.10138 9.57095 6.70004 8.62209C6.67456 8.56426 6.66334 8.50001 6.66752 8.43585C6.6717 8.37169 6.69113 8.30989 6.72384 8.25669C7.26729 7.35756 8.0029 6.62043 8.86554 6.11055C9.72818 5.60067 10.6912 5.33377 11.6695 5.3335C11.7571 5.3335 11.8412 5.37199 11.9032 5.44052C11.9652 5.50904 12 5.60199 12 5.6989C11.9985 7.10373 11.5909 8.47127 10.8367 9.60191C10.0824 10.7326 9.02102 11.5671 7.80736 11.9838Z" fill="#39B38E"/>
</svg>

<svg width="12" height="12" fill="none" xmlns="http://www.w3.org/2000/svg"><path d="M3.529 5.834a8.44 8.44 0 012.308 1.843c.02.023.044.041.073.054a.229.229 0 00.184 0 .203.203 0 00.073-.054A8.457 8.457 0 018.47 5.832a.388.388 0 00.149-.142.333.333 0 00.046-.189C8.563 3.716 7.716 2.03 6.29.77a.455.455 0 00-.291-.103.455.455 0 00-.292.103c-1.425 1.262-2.27 2.949-2.373 4.733a.332.332 0 00.046.19.387.387 0 00.149.141zm.664 6.15a.3.3 0 00.29-.053.357.357 0 00.1-.126.396.396 0 00.038-.162 8.776 8.776 0 01.679-3.02.399.399 0 00-.024-.366A6.21 6.21 0 003.134 6.11a5.504 5.504 0 00-2.803-.777.315.315 0 00-.234.107.386.386 0 00-.097.258 7.063 7.063 0 001.163 3.903c.755 1.13 1.816 1.965 3.03 2.382zm3.614 0a.3.3 0 01-.29-.053.357.357 0 01-.1-.126.396.396 0 01-.038-.162 8.776 8.776 0 00-.679-3.02.399.399 0 01.024-.366A6.21 6.21 0 018.866 6.11a5.504 5.504 0 012.803-.777c.088 0 .172.038.234.107a.386.386 0 01.097.258 7.064 7.064 0 01-1.163 3.903c-.755 1.13-1.816 1.965-3.03 2.382z" fill="#39B38E"/></svg>
